X: 49
T: Zhongshi de xing na xiangnian ni
L: 1/8
M: 2/4
K: G
d> d d d [I:setbarnb 1]| 
A B d3/ e/ | 
B B A B/ A/ | 
G GG2 | 
B B/ B/ A B/ A/ | 
G G A3/ d/ | 
B B A B/ A/ | 
G GG2 | 
G G B3/ d/ | 
G G A3/ d/ | 
B B A B/ A/ | 
G GG2 |]

@@@ Tune index: 8717
